X:196
T: WELCHES IST DIE SCHOENSTE UNTER DIESEN ALL
N: K2515
O: Europa, Mitteleuropa, Deutschland, Starkenburg
R: Kinder - Lied, Such - Spiel
M: 2/4
L: 1/8
K: F
 | FAcf | c2A2 |
cBGB | A2z2 |
cBGB | A2z2 |
cBGB | A2z2 |
FAcf | c2A2 |
cBGc | F2z2

@@@ Tune index: 7533
